assets/images/integrationicons/zenefits-icon-square.svg

<svg xmlns="http://www.w3.org/2000/svg" fill="none" viewBox="0 0 150 150"><rect width="100%" height="100%" fill="#fff"/><path fill="#ff5745" d="M108.975 40.275v10.95l-67.95 35.55v-10.95l27.075-14.1-27.075-6.75V45l39.9 10.05L96.3 47.025 41.025 33.15v-9.9zm-67.95 69.375 67.95 17.1v-9.975l-55.2-13.8 15.3-8.025 39.9 9.975v-9.9L81.9 88.2l27.075-14.175V63.15L41.025 98.7z"/></svg>

<svg viewBox="0 0 150 150" fill="none" xmlns="http://www.w3.org/2000/svg">
<rect width="100%" height="100%" fill="white"/>
<path d="M108.975 40.275V51.225L41.025 86.775V75.825L68.1 61.725L41.025 54.975V45L80.925 55.05L96.3 47.025L41.025 33.15V23.25L108.975 40.275ZM41.025 109.65L108.975 126.75V116.775L53.775 102.975L69.075 94.95L108.975 104.925V95.025L81.9 88.2L108.975 74.025V63.15L41.025 98.7V109.65Z" fill="#FF5745"/>
</svg>
